sprite_icons/home.svg

<svg height="16" viewBox="0 0 16 16" width="16" xmlns="http://www.w3.org/2000/svg"><path d="m11.0205931 9.00001444h-6.04030045v2.99999996h2.01343349c0-.5522847.45072244-1 1.00671674-1s1.00671674.4477153 1.00671674 1h2.01343348zm2.0134335 0v3.46726406c0 .7943716-.558118 1.5327359-1.4094035 1.5327359h-7.24836049c-.85128549 0-1.40940344-.7383643-1.40940344-1.5327359v-3.46726406h-.85947075c-.61159374 0-1.10738842-.49248677-1.10738842-1.1 0-.32273283.14268057-.62918394.39025002-.83818387l5.47226598-4.61366122c.49813495-.5100932 1.32081799-.59008736 1.92070387-.21259632.07668487.04825559.14874422.10343827.21505499.16510669l5.60468964 4.65549105c.4691722.38971424.5314637 1.08344172.1391319 1.54948371-.2104035.2499334-.5215203.39435996-.8495116.39435996zm-5.07703623-4.85715144-3.38441936 2.85715144h6.82410959z"/></svg>

<svg xmlns="http://www.w3.org/2000/svg" xmlns:xlink="http://www.w3.org/1999/xlink" width="16" height="16" viewBox="0 0 16 16">
  <defs>
    <path id="home-a" d="M14.6029645,7.05617077 C15.0721367,7.44588501 15.1344282,8.13961249 14.7420964,8.60565448 C14.5316929,8.85558788 14.2205761,9.00001444 13.8925848,9.00001444 L2.10738842,9.00001444 C1.49579468,9.00001444 1,8.50752767 1,7.90001444 C1,7.57728161 1.14268057,7.2708305 1.39025002,7.06183057 L6.862516,2.44816935 C7.36065095,1.93807615 8.18333399,1.85808199 8.78321987,2.23557303 C8.83434312,2.26774342 10.774258,3.87460934 14.6029645,7.05617077 Z M7.95699037,4.142863 L4.57257101,7.00001444 L11.3966806,7.00001444 L7.95699037,4.142863 Z M7.02686697,12 C7.02686697,11.4477153 7.4775894,11 8.03358371,11 C8.58957801,11 9.04030045,11.4477153 9.04030045,12 L11.0537339,12 L11.0537339,9 L13.0671674,9 L13.0671674,12.467264 C13.0671674,13.2616357 12.5090495,14 11.657764,14 L4.40940344,14 C3.55811795,14 3,13.2616357 3,12.467264 L3,9 L5.01343348,9 L5.01343348,12 L7.02686697,12 Z"/>
  </defs>
  <g fill="none" fill-rule="evenodd">
    <use fill="#000" fill-rule="nonzero" xlink:href="#home-a"/>
  </g>
</svg>
